icons/linear-new-media-bell-notification-off.svg

<svg xmlns="http://www.w3.org/2000/svg" width="32px" height="32px" viewBox="0 0 32 32" version="1.1">
    <title>linear-new-media-bell-notification-off</title>
    <g id="linear-new-media-bell-notification-off" stroke-width="1" fill-rule="evenodd">
        <path d="M16,2 C17.1045695,2 18,2.8954305 18,4 C18,4.06705824 17.9966997,4.13334565 17.9902527,4.19870868 C19.6129193,4.52568146 21.0935933,5.2464393 22.3282359,6.25664894 L25.2928932,3.29289322 C25.6834175,2.90236893 26.3165825,2.90236893 26.7071068,3.29289322 C27.0976311,3.68341751 27.0976311,4.31658249 26.7071068,4.70710678 L4.70710678,26.7071068 C4.31658249,27.0976311 3.68341751,27.0976311 3.29289322,26.7071068 C2.90236893,26.3165825 2.90236893,25.6834175 3.29289322,25.2928932 L3.584,25 L3,25 C2.44771525,25 2,24.5522847 2,24 C2,23.4477153 2.44771525,23 3,23 L5.584,23 L6,22.584 L6,14 C6,9.15854507 9.44054761,5.12067309 14.0100191,4.19800783 C14.0033003,4.13334565 14,4.06705824 14,4 C14,2.8954305 14.8954305,2 16,2 Z M24.868167,9.37435514 C25.5911587,10.7576195 26,12.3310648 26,14 L26,23 L29,23 C29.5522847,23 30,23.4477153 30,24 C30,24.5522847 29.5522847,25 29,25 L9.242,25 L11.242,23 L24,23 L24,14 C24,12.8915711 23.7745753,11.8357929 23.3670703,10.8760099 L24.868167,9.37435514 Z M16,6 C11.581722,6 8,9.581722 8,14 L8,20.584 L20.9054635,7.68000238 C19.5508091,6.62702594 17.8486294,6 16,6 Z M18.4500875,27.0004758 C18.4828187,27.1618833 18.5,27.3289352 18.5,27.5 C18.5,28.8807119 17.3807119,30 16,30 C14.6192881,30 13.5,28.8807119 13.5,27.5 C13.5,27.3289352 13.5171813,27.1618833 13.5499125,27.0004758 L18.4500875,27.0004758 Z" id="&#24418;&#29366;" fill-rule="nonzero" />
    </g>
</svg>

<svg xmlns="http://www.w3.org/2000/svg" viewBox="0 0 32 32"><path fill="currentColor" d="M16 2a2 2 0 0 1 1.99 2.199 9.953 9.953 0 0 1 4.338 2.058l2.965-2.964a1 1 0 0 1 1.414 1.414l-22 22a1 1 0 1 1-1.414-1.414L3.584 25H3a1 1 0 0 1 0-2h2.584L6 22.584V14c0-4.841 3.44-8.88 8.01-9.802A2 2 0 0 1 16 2m8.868 7.374A9.957 9.957 0 0 1 26 14v9h3a1 1 0 0 1 0 2H9.242l2-2H24v-9a7.975 7.975 0 0 0-.633-3.124zM16 6a8 8 0 0 0-8 8v6.584L20.905 7.68A7.965 7.965 0 0 0 16 6m2.45 21a2.5 2.5 0 1 1-4.9 0z"/></svg>
